X: 25692
T: Martin Wynne's
R: reel
M: 4/4
K: Dmajor
DE|FBAF E2FE|DB,~B,2 DB,A,2|B,E~E2 FEDE|FADA dcBA|
FGAF E2FE|DB,~B,2 DB,A,2|B,E~E2 FEDE|FBBA [Bg]2BA|
FBAF E2FE|DB,~B,2 DB,A,2|B,E~E2 FEDE|FADA dcBA|
FBAF E2FE|(3DED B,E DB,A,2|B,E~E2 FEDE|FBBA [Bf]2BA:|
|:FA (3cBA A2FA|(3Bcd eg fd d2|f2af (3efg fe|dBAd {_B}B2|
FGAG A2 FA|(3Bcd eg fd d2|(3bag af (3efg fe|dBAd {_B}[Bf]2:|

